icons/discoball/discoball.svg

<svg width="14" height="14" viewBox="0 0 14 14" fill="none"
    xmlns="http://www.w3.org/2000/svg">
    <path d="M6.26404 2.75098C9.00162 2.77874 11.2123 5.00585 11.2123 7.75C11.2123 10.4941 9.00161 12.7203 6.26404 12.748C6.25948 12.7482 6.25495 12.75 6.25037 12.75C6.24755 12.75 6.24438 12.7491 6.24158 12.749C6.23182 12.7491 6.22205 12.75 6.21228 12.75C3.45086 12.75 1.21228 10.5114 1.21228 7.75C1.21228 4.98858 3.45086 2.75 6.21228 2.75H6.25037C6.25495 2.75 6.25949 2.75085 6.26404 2.75098ZM4.9447 10.1895C4.99432 10.5111 5.05403 10.8315 5.12341 11.1504L5.23572 11.6289C5.40336 11.671 5.57507 11.7025 5.75037 11.7227V10.2344C5.48153 10.2265 5.21303 10.2101 4.9447 10.1895ZM7.5531 10.1895C7.28574 10.21 7.01823 10.2265 6.75037 10.2344V11.7129C6.92754 11.6891 7.10087 11.6537 7.2699 11.6074C7.38648 11.1383 7.47967 10.665 7.5531 10.1895ZM2.8363 9.89355C3.15884 10.4005 3.59163 10.8298 4.10193 11.1475C4.02963 10.7932 3.96876 10.4373 3.91931 10.0801C3.55681 10.0299 3.19579 9.96729 2.8363 9.89355ZM9.57654 9.91113C9.24544 9.97724 8.91309 10.0339 8.57947 10.0801C8.53268 10.4182 8.47585 10.7552 8.40857 11.0908C8.87546 10.7833 9.27379 10.3814 9.57654 9.91113ZM4.76697 8.25C4.7766 8.55896 4.79507 8.86763 4.82263 9.17578C5.13146 9.20348 5.44072 9.22271 5.75037 9.23242V8.25H4.76697ZM6.75037 9.23242C7.05934 9.22278 7.36799 9.20433 7.67615 9.17676C7.70381 8.86826 7.72308 8.55932 7.73279 8.25H6.75037V9.23242ZM8.73376 8.25C8.7259 8.51847 8.7114 8.78673 8.6908 9.05469C9.01192 9.00511 9.33236 8.94624 9.65076 8.87695L10.0785 8.77637C10.1238 8.60512 10.1577 8.42944 10.1801 8.25H8.73376ZM2.24451 8.25C2.26615 8.42352 2.29707 8.59389 2.34021 8.75977C2.35039 8.76165 2.36127 8.76211 2.37146 8.76465C2.84693 8.88351 3.32681 8.97823 3.80896 9.05273C3.7884 8.78541 3.7729 8.51783 3.76501 8.25H2.24451ZM8.68982 6.44434C8.71053 6.71263 8.72484 6.9812 8.73279 7.25H10.1801C10.1576 7.07024 10.124 6.89419 10.0785 6.72266L9.65076 6.62305C9.332 6.55368 9.01132 6.49395 8.68982 6.44434ZM3.80896 6.44629C3.32676 6.52079 2.84698 6.61648 2.37146 6.73535C2.36133 6.73788 2.35034 6.73738 2.34021 6.73926C2.29696 6.90543 2.26619 7.07616 2.24451 7.25H3.76501C3.77291 6.98184 3.78836 6.71394 3.80896 6.44629ZM5.75037 6.2666C5.44074 6.27631 5.13144 6.29554 4.82263 6.32324C4.79498 6.6317 4.77667 6.94072 4.76697 7.25H5.75037V6.2666ZM6.75037 7.25H7.73279C7.72313 6.94035 7.70381 6.63109 7.67615 6.32227C7.36801 6.2947 7.05932 6.27624 6.75037 6.2666V7.25ZM4.10193 4.35156C3.59167 4.66909 3.15889 5.09871 2.8363 5.60547C3.19577 5.53174 3.55683 5.46914 3.91931 5.41895C3.96878 5.06176 4.02961 4.70583 4.10193 4.35156ZM8.40759 4.40723C8.47501 4.74315 8.53255 5.08042 8.57947 5.41895C8.91307 5.46512 9.24546 5.52179 9.57654 5.58789C9.2735 5.11734 8.87494 4.71477 8.40759 4.40723ZM5.75037 3.77637C5.57512 3.79652 5.40333 3.82806 5.23572 3.87012V3.87109C5.11675 4.34695 5.02022 4.82702 4.94568 5.30957C5.21367 5.28894 5.48187 5.27255 5.75037 5.26465V3.77637ZM6.75037 5.26465C7.01854 5.27255 7.28641 5.28897 7.55408 5.30957C7.5045 4.98838 7.44661 4.66806 7.37732 4.34961L7.2699 3.8916C7.10091 3.84539 6.92749 3.80995 6.75037 3.78613V5.26465Z" fill="red"/>
    <path d="M11.3383 1.25781C11.3396 1.25805 11.3408 1.25854 11.3422 1.25879C11.3559 1.26134 11.3689 1.26589 11.3822 1.26953C11.3994 1.27426 11.4165 1.27869 11.433 1.28516C11.4451 1.28993 11.4565 1.29608 11.4681 1.30176C11.4838 1.30939 11.4993 1.317 11.514 1.32617C11.5252 1.33313 11.5357 1.34084 11.5463 1.34863C11.561 1.35952 11.5748 1.37138 11.5883 1.38379C11.5967 1.39163 11.6047 1.3998 11.6127 1.4082C11.6269 1.42323 11.6395 1.43936 11.6517 1.45605C11.6568 1.463 11.6626 1.46935 11.6674 1.47656C11.7015 1.5285 11.7277 1.58642 11.7406 1.64941L11.7601 1.85059C11.8001 2.04605 11.9543 2.20034 12.1498 2.24023L12.351 2.25977C12.3814 2.26601 12.4107 2.27559 12.4388 2.28711C12.449 2.29125 12.4583 2.29698 12.4681 2.30176C12.4849 2.30993 12.5013 2.3182 12.517 2.32812C12.5288 2.33565 12.54 2.34407 12.5511 2.35254C12.5646 2.36279 12.5778 2.37322 12.5902 2.38477C12.5988 2.39279 12.6066 2.40155 12.6146 2.41016C12.6282 2.42475 12.6409 2.43991 12.6527 2.45605C12.6584 2.4638 12.6641 2.47142 12.6693 2.47949C12.6827 2.50029 12.6942 2.52216 12.7045 2.54492C12.7067 2.54984 12.7092 2.55457 12.7113 2.55957C12.7356 2.6184 12.7504 2.68244 12.7504 2.75L12.7426 2.83887C12.7363 2.87401 12.7245 2.90726 12.7113 2.93945C12.7092 2.94446 12.7067 2.94918 12.7045 2.9541C12.6942 2.9769 12.6827 2.99869 12.6693 3.01953C12.6647 3.02663 12.6596 3.0332 12.6547 3.04004C12.6427 3.05671 12.6304 3.07284 12.6166 3.08789C12.6083 3.09689 12.5991 3.10491 12.5902 3.11328C12.5777 3.12503 12.5648 3.13606 12.5511 3.14648C12.54 3.15498 12.5289 3.16335 12.517 3.1709C12.5013 3.18086 12.4849 3.18907 12.4681 3.19727C12.4583 3.20206 12.449 3.20776 12.4388 3.21191C12.4106 3.2235 12.3815 3.23397 12.351 3.24023L12.1498 3.25977C11.9543 3.29966 11.8001 3.45395 11.7601 3.64941L11.7406 3.85059C11.7278 3.9133 11.7013 3.97069 11.6674 4.02246C11.6626 4.02969 11.6568 4.03601 11.6517 4.04297C11.6395 4.05971 11.6269 4.07575 11.6127 4.09082C11.6048 4.09925 11.5967 4.10737 11.5883 4.11523C11.5748 4.12768 11.561 4.13947 11.5463 4.15039C11.5357 4.15821 11.5252 4.16587 11.514 4.17285C11.4993 4.18205 11.4838 4.18961 11.4681 4.19727C11.4565 4.20296 11.4451 4.20907 11.433 4.21387C11.4165 4.22036 11.3995 4.22475 11.3822 4.22949C11.3689 4.23315 11.3559 4.23767 11.3422 4.24023C11.3123 4.2458 11.2818 4.24998 11.2504 4.25L11.1615 4.24219C11.1598 4.24188 11.1583 4.24055 11.1566 4.24023C11.1429 4.23764 11.1299 4.23318 11.1166 4.22949C11.0993 4.22471 11.0822 4.22039 11.0658 4.21387C11.0523 4.20851 11.0396 4.20178 11.0267 4.19531C11.0142 4.18901 11.0016 4.18308 10.9896 4.17578C10.9756 4.1672 10.9626 4.15734 10.9496 4.14746C10.9361 4.13723 10.9229 4.12675 10.9105 4.11523C10.9031 4.10832 10.896 4.10111 10.889 4.09375C10.8732 4.07714 10.8586 4.05968 10.8451 4.04102C10.8406 4.03478 10.8356 4.02891 10.8314 4.02246C10.7977 3.97085 10.7729 3.91305 10.7601 3.85059L10.7406 3.64941C10.7007 3.45404 10.5463 3.29978 10.351 3.25977L10.2504 3.25L10.1488 3.24023C10.1435 3.23914 10.1385 3.23662 10.1332 3.23535C10.1079 3.2293 10.0835 3.22164 10.0599 3.21191C10.0498 3.20774 10.0404 3.20208 10.0306 3.19727C10.0139 3.18904 9.99741 3.18088 9.98181 3.1709C9.96919 3.16284 9.9575 3.15366 9.94568 3.14453C9.93319 3.13487 9.92105 3.12504 9.90955 3.11426C9.9006 3.10589 9.89247 3.09688 9.88416 3.08789C9.87094 3.07356 9.85854 3.05877 9.84705 3.04297C9.84087 3.03449 9.83414 3.02645 9.82849 3.01758C9.81702 2.99951 9.80734 2.98047 9.79822 2.96094C9.79396 2.95184 9.78924 2.94298 9.78552 2.93359C9.77854 2.91592 9.77388 2.89749 9.76892 2.87891C9.76571 2.86689 9.76148 2.85513 9.75916 2.84277C9.75351 2.81267 9.75037 2.78173 9.75037 2.75C9.75037 2.71794 9.75339 2.68664 9.75916 2.65625C9.7615 2.6439 9.76569 2.63212 9.76892 2.62012C9.77391 2.60155 9.77851 2.58307 9.78552 2.56543C9.78925 2.55606 9.79395 2.54717 9.79822 2.53809C9.80737 2.51859 9.817 2.49947 9.82849 2.48145C9.83415 2.47259 9.84086 2.46452 9.84705 2.45605C9.85855 2.44029 9.87093 2.42543 9.88416 2.41113C9.89247 2.40216 9.9006 2.39311 9.90955 2.38477C9.9209 2.37415 9.93337 2.36499 9.94568 2.35547C9.95764 2.34623 9.96903 2.33627 9.98181 2.32812C9.9974 2.31818 10.0139 2.30996 10.0306 2.30176C10.0404 2.29696 10.0498 2.29127 10.0599 2.28711C10.0834 2.27744 10.1081 2.27067 10.1332 2.26465C10.1707 2.25565 10.2101 2.25 10.2504 2.25L10.351 2.24023C10.5463 2.20022 10.7007 2.04596 10.7406 1.85059L10.7601 1.64941C10.7717 1.59262 10.7925 1.53921 10.8217 1.49121L10.8353 1.4707C10.8383 1.46628 10.842 1.46233 10.8451 1.45801C10.8586 1.43939 10.8732 1.42184 10.889 1.40527C10.896 1.39794 10.9031 1.39069 10.9105 1.38379C10.9229 1.3723 10.9361 1.36176 10.9496 1.35156C10.9626 1.34171 10.9756 1.3318 10.9896 1.32324C11.0015 1.31596 11.0142 1.30999 11.0267 1.30371C11.0396 1.29726 11.0523 1.2905 11.0658 1.28516C11.0822 1.27866 11.0994 1.27429 11.1166 1.26953C11.1298 1.26586 11.1429 1.26137 11.1566 1.25879C11.1869 1.25308 11.2185 1.25 11.2504 1.25L11.3383 1.25781Z" fill="green"/>
</svg>

<svg xmlns="http://www.w3.org/2000/svg" width="14" height="14" fill="none" viewBox="0 0 14 14"><path fill="red" d="M6.264 2.751a5 5 0 0 1 0 9.997l-.014.002-.008-.001-.03.001a5 5 0 0 1 0-10h.038zm-1.32 7.439q.075.482.18.96l.112.479q.252.063.514.094v-1.489a17 17 0 0 1-.805-.044m2.61 0q-.402.032-.804.044v1.479q.266-.037.52-.106.174-.704.283-1.417m-4.718-.296c.323.506.756.936 1.266 1.254q-.108-.532-.183-1.068-.543-.076-1.083-.186m6.74.017q-.495.1-.997.17a17 17 0 0 1-.17 1.01c.466-.308.865-.71 1.168-1.18M4.768 8.25q.014.464.056.926.463.041.927.056V8.25zm1.983.982q.465-.015.926-.055.042-.463.057-.927H6.75zm1.984-.982a17 17 0 0 1-.043.805q.48-.075.96-.178l.428-.1a4 4 0 0 0 .101-.527zm-6.49 0q.032.261.096.51l.031.005q.715.177 1.438.288-.031-.402-.044-.803zM8.69 6.444q.03.403.043.806h1.447a4 4 0 0 0-.101-.527l-.428-.1q-.479-.105-.961-.179m-4.881.002a16 16 0 0 0-1.438.29l-.03.003a4 4 0 0 0-.096.511h1.52q.012-.402.044-.804m1.941-.18q-.465.016-.927.057-.042.464-.056.927h.983zm1 .984h.983q-.016-.465-.057-.928a16 16 0 0 0-.926-.055zM4.102 4.352a4 4 0 0 0-1.266 1.253q.54-.11 1.083-.186.074-.536.183-1.067m4.306.055q.101.504.171 1.012.5.07.998.169a4 4 0 0 0-1.17-1.18m-2.658-.63q-.263.03-.514.093v.001q-.18.714-.29 1.439a17 17 0 0 1 .804-.045zm1 1.488q.403.013.804.045-.074-.483-.177-.96l-.107-.458a4 4 0 0 0-.52-.106z"/><path fill="green" d="M11.338 1.258h.004l.04.012.051.015.035.017a.5.5 0 0 1 .12.082 1 1 0 0 1 .064.072l.015.02q.052.078.074.173l.02.202c.04.195.193.35.389.39l.201.019q.046.01.088.027l.03.015a.5.5 0 0 1 .121.083l.025.025.038.046.016.023q.02.032.035.066l.007.015q.039.087.04.19l-.008.089a.5.5 0 0 1-.032.1l-.007.015-.035.066-.014.02-.038.048-.027.025a.5.5 0 0 1-.122.084l-.03.015a.5.5 0 0 1-.087.028l-.201.02a.5.5 0 0 0-.39.39l-.02.2a.5.5 0 0 1-.073.172l-.015.021a.5.5 0 0 1-.138.13q-.022.014-.046.024l-.035.017-.05.015q-.02.007-.04.011a.5.5 0 0 1-.093.01l-.088-.008-.005-.002-.04-.01-.051-.016q-.02-.008-.04-.019-.018-.008-.036-.02a.5.5 0 0 1-.101-.081l-.044-.053-.014-.019a.5.5 0 0 1-.07-.171l-.02-.202a.5.5 0 0 0-.39-.39l-.1-.009-.102-.01q-.007-.001-.016-.005l-.073-.023-.03-.015-.048-.026q-.019-.012-.036-.026l-.036-.03-.026-.027-.037-.045-.019-.025-.03-.057-.012-.027q-.01-.027-.017-.055l-.01-.036a.5.5 0 0 1 0-.187l.01-.036q.007-.027.017-.055l.012-.027.03-.057.02-.025.036-.045.026-.026q.016-.015.036-.03l.036-.027.049-.026.029-.015a.5.5 0 0 1 .19-.037l.101-.01a.5.5 0 0 0 .39-.39l.02-.2a.5.5 0 0 1 .06-.159l.014-.02.01-.013a.5.5 0 0 1 .105-.106l.04-.029.037-.02.039-.018.05-.015q.02-.007.04-.011a.5.5 0 0 1 .094-.009z"/></svg>
